X:1
T:Title
%%score { ( 1 3 4 ) | ( 2 5 ) }
L:1/8
Q:1/4=100
M:4/4
K:Ab
V:1 treble nm="Grand Piano"
V:3 treble 
V:4 treble 
V:2 bass 
V:5 bass 
V:1
 [CE]>[CE] [DF]>[DG] [CA]2 [CE]2 | c>c (3Bcd c2 A2 | e>e (3=def e>c B>A | d2 c2 [GB]4 | %4
w: H.~A.~Henry * * * * *||||
 B>=A B>c d2 G2 | A>G A>[FB] [=Ec]2 [EG]2 | [FA]>[GB] c>d e>f [EAe]>[FAd] | [EAc]2 [DEB]2 [CEA]4 | %8
w: ||||
 e->[CAe-] [Ae-]>[Ae-] e>c (3AGF | E4 E4 | d->[Fd-] [Ed-]>[Fd-] d>B (3GF=E | E4 E4 | e6 F2 | %13
w: |||||
 c4 z4 | [CFA]>[EGB] c>d e>f [EAe]>[FAd] |[M:8/4] [EAc]2 [DEB]2 [CEA]4 z8 |] %16
w: |||
V:2
 [A,,A,]>[A,,A,] [A,,A,]>[A,,A,] [A,,E,]2 [A,,A,]2 | %1
 [A,E]>[A,E] (3[E,G,E][E,A,E][E,B,E][K:treble] [A,E]2 [A,C]2 | %2
 [A,CA]>[A,CA] (3[A,_CA][A,=CA][A,DA] [A,CA]>[A,EA] [DEG]>[CE] | [B,EG]2 [A,EA]2[K:bass] [E,E]4 | %4
 [E,G,E]>[E,_G,E] [E,=G,E]>[E,A,E] [E,B,E]2 [E,B,D]2 | %5
 [F,A,C]>[=E,B,C] [F,A,C]>[D,F,] [C,G,]2 [C,C]2 | %6
 [F,C]>[E,E][K:treble] [A,EA]>[A,B,A] [A,CA]>[A,DA][K:bass] C,>D, | E,2 E,2 A,,4 | %8
 [A,C]>A,, [C,C]>[E,C] [A,C]2 [A,CE]2 | z4 [G,B,]2 z2 | z4 z2 [E,D]2 | %11
 [A,C]>A, (3A,G,F, E,>D, E,>D, | A,,>A,, E,>C, z z/ A,/ (3z[K:treble] B[K:bass]F, | %13
 [C,G,]>[C,G,] (3[C,G,][=E,G,]G, C,2 C,2 | %14
 F,>E,[K:treble] [A,EA]>[A,B,A] [A,CA]>[A,DA][K:bass] C,>D, |[M:8/4] E,2 E,2 A,,4 z8 |] %16
V:3
 x8 | x8 | x8 | x8 | x8 | x8 | x8 | x8 | A2 z2 A2 z2 | z4 z2 D2 | G2 z2 G2 z2 | %11
 z z/ C/ (3C[A,C][A,C] [A,C]2 [A,C]2 | [CE]>[CE] [CE]>[CE] E->[Ec] (3[A,-A]A,_c | =E2 z2 G4 | x8 | %15
[M:8/4] x16 |] %16
V:4
 x8 | x8 | x8 | x8 | x8 | x8 | x8 | x8 | x8 | z z/ D/ (3DDD z z/ C/ z z/ A,/ | x8 | x8 | z4 C2 z2 | %13
 z z/ =E/ (3EEE [CE]2 [CE]2 | x8 |[M:8/4] x16 |] %16
V:5
 x8 | x4[K:treble] x4 | x8 | x4[K:bass] x4 | x8 | x8 | x2[K:treble] x4[K:bass] x2 | x8 | x8 | %9
 [G,B,D]>[F,A,] (3[E,G,][E,G,][F,A,] D->[A,D] [G,B,]>F, | %10
 [E,B,]>[E,A,] [E,G,]>[E,A,] [E,B,]2 (3:2:2B,2 G, | x8 | z4 A,,2 D,2[K:treble][K:bass] | x8 | %14
 x2[K:treble] x4[K:bass] x2 |[M:8/4] x16 |] %16

